pages/main-page/img/mobile.svg

<svg width="28" height="16" viewBox="0 0 28 16" fill="none" xmlns="http://www.w3.org/2000/svg">
<path d="M26.4331 12.3194H26.5733L27.1343 11.9922L26.5733 12.3194H26.4331Z" fill="#B8BDD1"/>
<path d="M27.3234 11.6638H27.1597L26.5987 11.991H26.4585H26.5754L27.2766 11.5703L27.3234 11.6638Z" fill="#D6DBE4"/>
<path d="M1.23691 10.6838L8.506 14.8676C8.64599 14.9433 8.80265 14.983 8.96179 14.983C9.12094 14.983 9.2776 14.9433 9.41759 14.8676C26.1997 5.19105 25.2413 5.77539 25.3582 5.51828V5.37805C22.9807 3.79689 20.5148 2.35319 17.9723 1.05399V1.05399C17.8013 0.983333 17.6152 0.956992 17.4313 0.977422C17.2474 0.997852 17.0717 1.06436 16.9204 1.17083L1.5875 10.0294C1.2369 10.2397 1.26029 10.2163 1.1668 10.3332V10.4968C1.17643 10.5635 1.20034 10.6273 1.23691 10.6838V10.6838ZM1.23691 10.2631L1.51738 10.0995L16.8503 1.24095C16.9839 1.14742 17.143 1.09726 17.3061 1.09726C17.4692 1.09726 17.6282 1.14742 17.7618 1.24095C25.662 5.91562 25.031 5.42479 25.1245 5.51828V5.68191C25.1245 5.84552 26.0828 5.19107 9.23056 15.0313C9.12258 15.0886 9.00222 15.1185 8.87998 15.1185C8.75774 15.1185 8.63737 15.0886 8.52939 15.0313L1.26024 10.824C1.1904 10.7989 1.13225 10.749 1.09668 10.6838V10.6838L1.23691 10.2631Z" fill="#B8BDD1"/>
<path d="M1.14406 11.4544L8.41314 15.6616C8.55535 15.7299 8.71114 15.7654 8.86894 15.7654C9.02673 15.7654 9.18252 15.7299 9.32474 15.6616L25.0784 6.56933C25.1614 6.53185 25.2279 6.46536 25.2654 6.38234C25.2654 6.38234 25.2654 6.38233 25.2654 5.49414C25.1485 5.7045 26.3405 4.95655 9.32474 14.8435C9.18474 14.9192 9.02808 14.9588 8.86894 14.9588C8.70979 14.9588 8.55313 14.9192 8.41314 14.8435L1.14406 10.6597C1.06503 10.6166 1.00006 10.5517 0.957031 10.4727V10.4727C0.957031 11.3842 0.957031 11.2673 0.957031 11.3608L1.14406 11.4544ZM21.1984 8.46257H21.3153L22.6476 7.69124H22.9047L21.4789 8.53268H21.2685L21.1984 8.46257ZM7.82881 14.8201C7.94567 14.8201 8.03918 15.0071 7.99244 15.1006C7.8522 15.1707 7.78206 14.9136 7.82881 14.8201V14.8201ZM7.47822 14.6331C7.59509 14.6331 7.6886 14.8201 7.64185 14.8902C7.58833 14.874 7.54241 14.8392 7.51239 14.792C7.48237 14.7448 7.47023 14.6885 7.47822 14.6331V14.6331ZM7.15103 14.4461C7.15103 14.4461 7.36138 14.6098 7.29126 14.7033C7.23906 14.687 7.19518 14.6511 7.169 14.6031C7.14283 14.5551 7.13642 14.4988 7.15103 14.4461V14.4461ZM6.82377 14.2592C6.87775 14.2802 6.92197 14.3206 6.94788 14.3724C6.9738 14.4242 6.97955 14.4838 6.964 14.5396V14.5396C6.93545 14.5318 6.90886 14.5181 6.88597 14.4994C6.86308 14.4806 6.84442 14.4572 6.83119 14.4307C6.81795 14.4043 6.81042 14.3753 6.80915 14.3457C6.80787 14.3162 6.81286 14.2867 6.82377 14.2592V14.2592ZM6.47318 14.0488C6.59005 14.0488 6.68356 14.2358 6.63681 14.3293C6.54332 14.3059 6.5433 14.1423 6.5433 14.0488H6.47318ZM6.14592 13.8618C6.14592 13.8618 6.35635 14.0254 6.28623 14.1189C6.23403 14.1027 6.19014 14.0668 6.16397 14.0188C6.13779 13.9708 6.13131 13.9145 6.14592 13.8618V13.8618ZM4.11245 12.6697L5.42135 13.4411C5.4479 13.4742 5.46237 13.5155 5.46237 13.5579C5.46237 13.6004 5.4479 13.6417 5.42135 13.6748V13.6748L4.20596 12.8334C4.19356 12.8079 4.18713 12.7799 4.18713 12.7516C4.18713 12.7232 4.19356 12.6952 4.20596 12.6697H4.11245ZM2.1491 11.5478C2.18005 11.5513 2.20965 11.5625 2.23519 11.5804C2.26073 11.5982 2.28139 11.6221 2.29532 11.65C2.30926 11.6779 2.31606 11.7088 2.31501 11.7399C2.31396 11.7711 2.30511 11.8015 2.28933 11.8283V11.8283C2.26077 11.8206 2.23419 11.8068 2.2113 11.7881C2.1884 11.7693 2.16975 11.7459 2.15651 11.7195C2.14328 11.693 2.13575 11.664 2.13447 11.6344C2.1332 11.6049 2.13819 11.5753 2.1491 11.5478V11.5478ZM1.54137 11.1739C1.70498 11.1739 1.84523 11.4543 1.77511 11.5946C1.72914 11.5877 1.68541 11.5703 1.64722 11.5438C1.60902 11.5173 1.57742 11.4823 1.55485 11.4417C1.53227 11.4011 1.5193 11.3558 1.51697 11.3093C1.51464 11.2629 1.52296 11.2165 1.54137 11.1739V11.1739Z" fill="#9495B4"/>
<path d="M1.35445 10.4978L8.6236 14.705C8.73158 14.7623 8.85195 14.7922 8.97419 14.7922C9.09643 14.7922 9.2168 14.7623 9.32478 14.705C26.0601 5.05178 25.1251 5.63611 25.2186 5.35563V5.192C25.2186 5.192 25.7562 5.47248 17.856 0.914669C17.7238 0.817815 17.5641 0.765625 17.4002 0.765625C17.2363 0.765625 17.0767 0.817815 16.9445 0.914669L1.61159 9.77319L1.33105 9.93679V10.4978C1.33884 10.4981 1.34666 10.4981 1.35445 10.4978V10.4978ZM7.29131 12.3209L6.40311 12.8351H6.28627L4.57999 11.8301L5.46819 11.3158H5.60842L7.33803 12.3209H7.29131ZM22.2035 4.65442C22.2232 4.63392 22.2467 4.6176 22.2729 4.60645C22.299 4.5953 22.3271 4.58955 22.3555 4.58955C22.3838 4.58955 22.4119 4.5953 22.438 4.60645C22.4641 4.6176 22.4877 4.63392 22.5073 4.65442C22.4877 4.67493 22.4641 4.69124 22.438 4.70239C22.4119 4.71354 22.3838 4.7193 22.3555 4.7193C22.3271 4.7193 22.299 4.71354 22.2729 4.70239C22.2467 4.69124 22.2232 4.67493 22.2035 4.65442V4.65442ZM21.8061 4.44407C21.8061 4.44407 22.0399 4.44407 22.0866 4.44407C22.0721 4.46827 22.0516 4.4883 22.027 4.5022C22.0024 4.51611 21.9746 4.52339 21.9464 4.52339C21.9181 4.52339 21.8904 4.51611 21.8658 4.5022C21.8413 4.4883 21.8207 4.46827 21.8061 4.44407V4.44407ZM20.8478 3.32212C20.8654 3.30223 20.887 3.28632 20.9112 3.2754C20.9353 3.26449 20.9615 3.25882 20.9881 3.25882C21.0146 3.25882 21.0408 3.26449 21.065 3.2754C21.0892 3.28632 21.1108 3.30223 21.1283 3.32212C21.1087 3.34263 21.0851 3.35894 21.059 3.37009C21.0329 3.38124 21.0048 3.387 20.9764 3.387C20.948 3.387 20.9199 3.38124 20.8938 3.37009C20.8677 3.35894 20.8441 3.34263 20.8244 3.32212V3.32212H20.8478ZM19.4922 3.11177H19.6324L21.4556 4.16357H21.3153L19.4922 3.11177ZM3.13085 9.44597L15.7758 2.13009H15.9161H16.0796L23.232 6.26719L10.47 13.6298H10.3298L3.17757 9.49273L3.13085 9.44597Z" fill="#494760"/>
<path d="M21.1978 8.535L22.5067 7.76367H22.3432L21.0109 8.535H20.894H21.1978Z" fill="#B8BDD1"/>
<path d="M22.9056 7.46074L21.5967 8.23207H21.7135L23.1393 7.39062L22.9056 7.46074Z" fill="#D6DBE4"/>
<path d="M10.3771 13.5602V13.5836H10.4004H10.4238L23.022 6.31441L23.0921 6.2443H23.1155H23.0921V6.22097L19.5628 4.1875L6.84766 11.5267L10.3771 13.5602Z" fill="#252431"/>
<path d="M3.29492 9.49541H3.31832L6.84772 11.5289L19.5628 4.18968L16.0334 2.15614H16.01V2.13281H15.9867V2.15614L15.9399 2.17953L3.31832 9.47201H3.29492V9.49541Z" fill="#0B0B0E"/>
<path d="M3.13082 9.49544L10.2831 13.6325H10.4233L23.1851 6.26991L16.0329 2.13281H15.8927H15.7524L3.10742 9.44869L3.13082 9.49544ZM3.29438 9.49544L15.9161 2.20293L19.4454 4.23644L22.9748 6.29327L10.3766 13.5624L6.84717 11.5289L3.31777 9.49544H3.29438Z" fill="#262533"/>
<path d="M5.49131 11.3633H5.46798L4.6499 11.8542L5.46798 12.3216L6.30939 11.8542L5.49131 11.3633Z" fill="black"/>
<path d="M7.12824 12.3248L6.31016 11.8574L5.46875 12.3248L6.28683 12.8157H6.31016V12.7923L7.12824 12.3248Z" fill="#262533"/>
<path d="M7.26878 12.3214L5.53918 11.3164H5.39894L4.51074 11.8306L6.21695 12.8357H6.33386L7.22206 12.3214H7.26878ZM7.12855 12.3214L6.31047 12.7889L5.49238 12.2981L4.67437 11.8306L5.49238 11.3398L6.31047 11.8306L7.12855 12.2981V12.3214Z" fill="#9495B4"/>
<path d="M21.1516 3.48518C21.134 3.46528 21.1124 3.44934 21.0882 3.43842C21.064 3.42751 21.0379 3.42188 21.0113 3.42188C20.9848 3.42188 20.9585 3.42751 20.9344 3.43842C20.9102 3.44934 20.8886 3.46528 20.8711 3.48518C20.9097 3.51968 20.9596 3.53875 21.0113 3.53875C21.0631 3.53875 21.113 3.51968 21.1516 3.48518V3.48518ZM20.9178 3.48518H21.058C21.058 3.48518 20.9179 3.48518 20.8945 3.48518H20.9178Z" fill="#262533"/>
<path d="M22.5089 4.72503C22.4892 4.70453 22.4656 4.68821 22.4395 4.67706C22.4134 4.66591 22.3854 4.66016 22.357 4.66016C22.3286 4.66016 22.3005 4.66591 22.2744 4.67706C22.2483 4.68821 22.2247 4.70453 22.2051 4.72503C22.2247 4.74553 22.2483 4.76185 22.2744 4.773C22.3005 4.78415 22.3286 4.78991 22.357 4.78991C22.3854 4.78991 22.4134 4.78415 22.4395 4.773C22.4656 4.76185 22.4892 4.74553 22.5089 4.72503V4.72503ZM22.2985 4.72503H22.4388H22.2985Z" fill="#262533"/>
<path d="M22.1105 4.49023C22.1105 4.49023 21.8768 4.49023 21.8301 4.49023C21.8476 4.51013 21.8692 4.52608 21.8933 4.53699C21.9175 4.54791 21.9438 4.55358 21.9703 4.55358C21.9968 4.55358 22.023 4.54791 22.0472 4.53699C22.0714 4.52608 22.093 4.51013 22.1105 4.49023ZM21.9002 4.49023H22.0404H21.9002Z" fill="#262533"/>
<path d="M6.28614 14.1204C6.29711 14.0945 6.30209 14.0664 6.30069 14.0383C6.2993 14.0101 6.29156 13.9827 6.27808 13.958C6.2646 13.9333 6.24569 13.9119 6.2228 13.8955C6.19991 13.8791 6.17358 13.8681 6.14584 13.8633V13.8633C6.13122 13.916 6.1377 13.9723 6.16388 14.0202C6.19006 14.0682 6.23394 14.1042 6.28614 14.1204V14.1204Z" fill="black"/>
<path d="M2.28835 11.8059C2.30413 11.779 2.31298 11.7486 2.31403 11.7175C2.31508 11.6863 2.30828 11.6554 2.29434 11.6276C2.28041 11.5997 2.25975 11.5758 2.23421 11.5579C2.20867 11.5401 2.17908 11.5289 2.14812 11.5254C2.13721 11.5529 2.13222 11.5824 2.1335 11.612C2.13477 11.6416 2.1423 11.6705 2.15554 11.697C2.16877 11.7234 2.18743 11.7468 2.21032 11.7656C2.23321 11.7844 2.2598 11.7981 2.28835 11.8059V11.8059Z" fill="black"/>
<path d="M1.86888 11.575C1.86888 11.4348 1.86886 11.1543 1.63513 11.1543C1.61673 11.197 1.60841 11.2434 1.61073 11.2898C1.61306 11.3362 1.62596 11.3815 1.64854 11.4221C1.67112 11.4628 1.70272 11.4977 1.74091 11.5242C1.77911 11.5507 1.82291 11.5681 1.86888 11.575V11.575Z" fill="black"/>
<path d="M4.20582 12.8334L5.53812 13.6047C5.56467 13.5715 5.57914 13.5303 5.57914 13.4878C5.57914 13.4453 5.56467 13.4041 5.53812 13.3709L4.22922 12.5996C4.1992 12.63 4.18047 12.6698 4.17622 12.7123C4.17197 12.7549 4.18242 12.7976 4.20582 12.8334Z" fill="black"/>
<path d="M6.54303 14.3098C6.54303 14.3098 6.54301 14.0293 6.37939 14.0293L6.54303 14.3098Z" fill="black"/>
<path d="M7.29146 14.7024C7.29146 14.7024 7.29147 14.4453 7.15123 14.4453C7.13661 14.498 7.14302 14.5543 7.1692 14.6023C7.19538 14.6503 7.23926 14.6862 7.29146 14.7024V14.7024Z" fill="black"/>
<path d="M6.96429 14.5188C6.97984 14.4629 6.97408 14.4033 6.94817 14.3515C6.92225 14.2997 6.87804 14.2593 6.82405 14.2383C6.80828 14.2651 6.79949 14.2955 6.79845 14.3267C6.7974 14.3578 6.80413 14.3887 6.81806 14.4166C6.83199 14.4444 6.85265 14.4684 6.87819 14.4862C6.90373 14.5041 6.93333 14.5153 6.96429 14.5188Z" fill="black"/>
<path d="M7.96874 15.1711C7.96874 15.1711 7.96879 14.8906 7.80518 14.8906C7.80518 14.8906 7.85187 15.1711 7.96874 15.1711Z" fill="black"/>
<path d="M7.64161 14.8899C7.64848 14.8623 7.64962 14.8335 7.64504 14.8054C7.64045 14.7772 7.63024 14.7503 7.61494 14.7263C7.59964 14.7022 7.57963 14.6816 7.55609 14.6655C7.53255 14.6494 7.50595 14.6383 7.47798 14.6328V14.6328C7.46999 14.6882 7.48213 14.7445 7.51215 14.7917C7.54217 14.8389 7.5881 14.8737 7.64161 14.8899V14.8899Z" fill="black"/>
<path d="M19.4932 3.15793L21.3163 4.23308H21.3396H21.363H21.3864H21.4097L21.55 4.13957V4.11624V4.09285L19.7269 3.04102H19.7035H19.6801H19.6567H19.6334L19.4932 3.13453V3.15793Z" fill="black"/>
</svg>

<svg width="28" height="16" fill="none" xmlns="http://www.w3.org/2000/svg"><path d="M26.433 12.32h.14l.561-.328-.56.327h-.14Z" fill="#B8BDD1"/><path d="M27.323 11.664h-.163l-.561.327h-.14.116l.702-.42.046.093Z" fill="#D6DBE4"/><path d="m1.237 10.684 7.269 4.184a.958.958 0 0 0 .912 0C26.2 5.19 25.24 5.775 25.358 5.518v-.14a74.8 74.8 0 0 0-7.386-4.324 1.099 1.099 0 0 0-1.052.117L1.587 10.029c-.35.21-.327.187-.42.304v.164c.01.066.033.13.07.187Zm0-.42.28-.164L16.85 1.24a.795.795 0 0 1 .912.001c7.9 4.675 7.269 4.184 7.363 4.277v.164c0 .164.958-.49-15.894 9.35a.748.748 0 0 1-.702 0L1.26 10.823a.303.303 0 0 1-.163-.14l.14-.42Z" fill="#B8BDD1"/><path d="m1.144 11.454 7.27 4.208a1.053 1.053 0 0 0 .91 0l15.754-9.093a.374.374 0 0 0 .187-.187v-.888c-.117.21 1.075-.537-15.94 9.35a.958.958 0 0 1-.912 0L1.144 10.66a.468.468 0 0 1-.187-.187v.888l.187.093Zm20.054-2.991h.117l1.333-.772h.257l-1.426.842h-.21l-.07-.07ZM7.828 14.82c.118 0 .211.187.164.28-.14.07-.21-.186-.163-.28Zm-.35-.187c.117 0 .21.187.164.257a.234.234 0 0 1-.164-.257Zm-.327-.187s.21.164.14.257a.21.21 0 0 1-.14-.257Zm-.327-.187a.234.234 0 0 1 .14.28.211.211 0 0 1-.155-.193.21.21 0 0 1 .015-.087Zm-.35-.21c.116 0 .21.187.163.28-.094-.023-.094-.187-.094-.28h-.07Zm-.328-.187s.21.163.14.257a.21.21 0 0 1-.14-.257ZM4.112 12.67l1.31.771a.187.187 0 0 1 0 .234l-1.216-.842a.187.187 0 0 1 0-.163h-.094ZM2.15 11.548a.187.187 0 0 1 .14.28.21.21 0 0 1-.14-.28Zm-.608-.374c.164 0 .304.28.234.42a.303.303 0 0 1-.234-.42Z" fill="#9495B4"/><path d="m1.354 10.498 7.27 4.207a.748.748 0 0 0 .7 0C26.06 5.052 25.126 5.636 25.22 5.355v-.163s.537.28-7.363-4.277a.771.771 0 0 0-.912 0L1.613 9.773l-.281.164v.56h.023Zm5.937 1.823-.888.514h-.117L4.58 11.83l.888-.514h.14l1.73 1.005h-.047Zm14.912-7.667a.21.21 0 0 1 .304 0 .21.21 0 0 1-.304 0Zm-.397-.21h.28a.163.163 0 0 1-.22.058.165.165 0 0 1-.06-.058Zm-.958-1.122a.188.188 0 0 1 .28 0 .21.21 0 0 1-.304 0h.024Zm-1.356-.21h.14l1.824 1.052h-.14l-1.824-1.052ZM3.131 9.446 15.776 2.13H16.08l7.152 4.137L10.47 13.63h-.14L3.178 9.493l-.047-.047Z" fill="#494760"/><path d="m21.198 8.535 1.309-.771h-.164l-1.332.771h-.117.304Z" fill="#B8BDD1"/><path d="m22.906 7.46-1.31.772h.117l1.426-.841-.233.07Z" fill="#D6DBE4"/><path d="M10.377 13.56v.024h.047l12.598-7.27.07-.07h.024-.024v-.023l-3.53-2.034-12.714 7.34 3.53 2.033Z" fill="#252431"/><path d="M3.295 9.495h.023l3.53 2.034 12.715-7.34-3.53-2.033h-.023v-.023h-.023v.023l-.047.024L3.318 9.472h-.023v.023Z" fill="#0B0B0E"/><path d="m3.13 9.495 7.153 4.138h.14L23.185 6.27l-7.152-4.137h-.28L3.106 9.449l.024.046Zm.164 0 12.622-7.292 3.53 2.033 3.529 2.057-12.598 7.27-3.53-2.034-3.53-2.034h-.023Z" fill="#262533"/><path d="M5.491 11.363h-.023l-.818.491.818.468.841-.468-.818-.49Z" fill="#000"/><path d="m7.128 12.325-.818-.468-.841.468.818.49h.023v-.023l.818-.467Z" fill="#262533"/><path d="m7.269 12.321-1.73-1.005H5.4l-.888.515 1.706 1.005h.117l.888-.515h.047Zm-.14 0-.819.468-.818-.49-.818-.468.818-.491.818.49.819.468v.023Z" fill="#9495B4"/><path d="M21.152 3.485a.188.188 0 0 0-.28 0 .21.21 0 0 0 .28 0Zm-.234 0h.14-.163.023ZM22.509 4.725a.212.212 0 0 0-.304 0 .21.21 0 0 0 .304 0Zm-.21 0h.14-.14ZM22.11 4.49h-.28a.187.187 0 0 0 .28 0Zm-.21 0h.14-.14Z" fill="#262533"/><path d="M6.286 14.12a.187.187 0 0 0-.14-.257.21.21 0 0 0 .14.257ZM2.288 11.806a.187.187 0 0 0-.14-.28.21.21 0 0 0 .14.28ZM1.869 11.575c0-.14 0-.42-.234-.42a.304.304 0 0 0 .234.42ZM4.206 12.833l1.332.772a.187.187 0 0 0 0-.234L4.23 12.6a.187.187 0 0 0-.023.233ZM6.543 14.31s0-.28-.164-.28l.164.28ZM7.291 14.702s0-.257-.14-.257a.21.21 0 0 0 .14.257ZM6.964 14.519a.234.234 0 0 0-.14-.28.187.187 0 0 0 .14.28ZM7.969 15.171s0-.28-.164-.28c0 0 .047.28.164.28ZM7.642 14.89a.21.21 0 0 0-.164-.257.234.234 0 0 0 .164.257ZM19.493 3.158l1.823 1.075h.094l.14-.093v-.047L19.727 3.04h-.094l-.14.094v.023Z" fill="#000"/></svg>
